X:3152
L:1/8
M:2/4
K:D
 d | da af | fd dg | f>d e>c | d2 z d | da af | fd dg | f>a a/g/f/e/ d3 :: d | c>d ee | d>e fd | 
 c>d ee | d>e fd | da af | fd dg |1 f>d e>c | d3 :|2 f>d a>c | d3 ||

